X:190
T:Ard an Bhothair
T:Hill on The Road, The
T:High Part of the Road, The
R:jig
Z:id:hn-jig-190
M:6/8
K:G
BAB cBc|ded cAG|F2D DED|FED FGA|BAB cBc|dcA d2e|fed cAF|1 AGF G2A:|2 AGF GBd||
|:~g3 def|g2a bag|~f3 dfg|afd cAG|~g3 def|g2a bag|fed cAF|1 AGF GBd:|2 AGF G2A||
P:Variations:
|:BDD cDD|ded cAG|~F3 DED|DGG FGA|BAB cBc|dcA d2e|fed cAF|1 AGF G2A:|2 AGF GBd||
|:g2d def|g2b a2g|f2d dfg|afd cAG|g2d def|g2a bag|fed cAF|1 AGF GBd:|2 AGF G2A||

